img/svg/moon.svg

<?xml version="1.0" encoding="utf-8"?><!DOCTYPE svg PUBLIC "-//W3C//DTD SVG 1.1//EN" "http://www.w3.org/Graphics/SVG/1.1/DTD/svg11.dtd"><svg version="1.1" baseProfile="full" xmlns="http://www.w3.org/2000/svg" xmlns:xlink="http://www.w3.org/1999/xlink" xmlns:ev="http://www.w3.org/2001/xml-events"   height="26px"   width="24px" ><path fill="rgb( 255, 178, 127 )" d="M13.987,0 C13.987,0 15.607,4.209 15.607,4.209 C15.607,4.209 18.66,5.19999999999999 18.66,5.19999999999999 C18.66,5.19999999999999 15.606,6.191 15.606,6.191 C15.606,6.191 13.987,10.4 13.987,10.4 C13.987,10.4 12.366,6.191 12.366,6.191 C12.366,6.191 9.31399999999996,5.19999999999999 9.31399999999996,5.19999999999999 C9.31399999999996,5.19999999999999 12.366,4.209 12.366,4.209 C12.366,4.209 13.987,0 13.987,0 ZM15.958,19.189 C15.4589999999999,23.029 12.091,26 8.00999999999999,26 C3.58699999999999,26 0,22.506 0,18.2 C0,14.605 2.49699999999996,11.579 5.89400000000001,10.676 C6.56799999999998,10.495 7.27800000000002,10.4 8.00999999999999,10.4 C8.34000000000003,10.4 8.66499999999996,10.42 8.98299999999995,10.457 C8.36900000000003,11.375 6.67700000000002,13.772 6.67700000000002,14.95 C6.67700000000002,18.18 6.971,21.134 12.684,20.8 C13.3630000000001,20.76 15.349,19.391 15.958,19.189 ZM19.327,10.4 C19.327,10.4 20.948,14.61 20.948,14.61 C20.948,14.61 24,15.6 24,15.6 C24,15.6 20.948,16.59 20.948,16.59 C20.948,16.59 19.327,20.8 19.327,20.8 C19.327,20.8 17.707,16.59 17.707,16.59 C17.707,16.59 14.655,15.6 14.655,15.6 C14.655,15.6 17.707,14.61 17.707,14.61 C17.707,14.61 19.327,10.4 19.327,10.4 Z "/></svg>

<svg baseProfile="full" xmlns="http://www.w3.org/2000/svg" height="26" width="24"><path fill="rgb( 255, 178, 127 )" d="M13.987 0l1.62 4.209 3.053.991-3.054.991-1.619 4.209-1.621-4.209-3.052-.991 3.052-.991 1.621-4.209zm1.971 19.189c-.499 3.84-3.867 6.811-7.948 6.811-4.423 0-8.01-3.494-8.01-7.8 0-3.595 2.497-6.621 5.894-7.524.674-.181 1.384-.276 2.116-.276.33 0 .655.02.973.057-.614.918-2.306 3.315-2.306 4.493 0 3.23.294 6.184 6.007 5.85.679-.04 2.665-1.409 3.274-1.611zm3.369-8.789l1.621 4.21 3.052.99-3.052.99-1.621 4.21-1.62-4.21-3.052-.99 3.052-.99 1.62-4.21z"/></svg>
